X: 14982
T: General Stewart
R: reel
M: 4/4
K: Dmixolydian
c|A<dd>A FDDF|EcGc ECCE|D<dd>A F[DA][DA]g|fde^c d/d/d d:|
g|fddf a<daf|gcca g<cge|fddf a<dag|e<cge d2 dc|
d2 db a<daf|gcca g<cge|dfeg fagb|afge [df]/[df]/d d||

